!!!OTL: Paddy Backwards
!!!ONM: 82.
**kern
*clefG2
*k[]
*C:
*M3/4
*MM80
{4c
=1
4c
4c
4c
=2
4g
4g
4g
=3
4e
4c
4c
=4
4c
4r}
{4c
=5
4c
4c
4c
=6
2g
8g
8g
=7
4e
4c
4d
=8
4d
4r}
{4d
=9
2d
8d
8d
=10
2g
8g
8g
=11
4e
4c
4c
=12
4f
4r}
{4e
=13
4e
4d
4c
=14
4c
4d
4c
=15
4c
4d
4c
=16
4B}
=||
{4A
4G
=17
4c
4r
8c
8c
=18
4c
4d
4e
=19
2g
4r
=20
4r
4r}
{8g
8g
=21
4g
4r
8g
8g
=22
4g
4f
4d
=23
4c
4r}
==
*-
!!!CNT: Folksongs of Maritime Canada
!!!MRD: 1928///-1932///
!!!OCL: Helen Creighton
!!!YOR: Songs and Ballads from Nova Scotia
!!!PPR: J.M. Dent & Sons, Limited
!!!PPP: Toronto, Canada
!!!PDT: 1932///
!!!reprint: Dover Publications, 1992: ISBN 0-486-21703-5
!!!ENC1: Craig Stuart Sapp (music and bibliographic data)                       
!!!ENC2: Marcus Pearce (phrase markings and key designations)                   
!!!ENC3: Darrell Conklin (phrase markings and key designations)   
!!!END: 2002/04/10/
!!!EEV: 2004/06/05
!!!MPN: Mr. Richard Hartlan
!!!PPG: 177
!!!EFL: 83/152
!!!ARE: Canada; Nova Scotia
!!!verses: 8
!!!VTS: 3282198281
